X:1
T:Armstrong (Richards), 87.87 D
T:Armstrong (Richards), 87.87 D
T:Henry Brinley Richards (1817-1889)
T:Public Domain Courtesy of the Cyber Hymnal™
C:Henry Brinley Richards (1817-1889)
Z:Public Domain
Z:Courtesy of the Cyber Hymnal™
%%score ( 1 2 ) ( 3 4 )
L:1/8
Q:1/4=145
M:6/4
K:F
V:1 treble 
V:2 treble 
V:3 bass 
V:4 bass 
V:1
 [FA]2 [GB]2 | [Fc]6 [Fc]2 [Fd]3 [Fc] | [Fc]4 [FA]4 [FA]2 [FA]2 | [Ec]6 [EG]2 [^D^F]2 [EG]2 | %4
 [CA]8 [FA]2 [EB]2 | [Fc]6 [Fc]2 [Fd]3 [Fc] | [Fc]4 [FA]4 [FA]2 [FA]2 | [Ec]6 [EG]2 [FB]3 [EA] | %8
 [CF]8 F2 F2 | [Fd]6 [Fd]2 [Ge]3 [Fd] | [Fd]4 [Fc]4 [CF]2 [CF]2 | [=B,F]6 [B,F]2 [CE]2 [DF]2 | %12
 [FA]4 [EG]4 [FA]2 [EB]2 | [Fc]6 [Fc]2 [Fd]3 [Fc] | [Fc]4 [FA]4 [FA]2 [FA]2 | %15
 [Ec]6 [EG]2 [FB]3 [EA] | [CF]8 |] %17
V:2
 x4 | x12 | x12 | x12 | x12 | x12 | x12 | x12 | x8 F2 F2 | x12 | x12 | x12 | x12 | x12 | x12 | %15
 x12 | x8 |] %17
V:3
 [F,C]2 [F,B,]2 | [F,A,]6 [F,A,]2 [F,B,]3 [F,A,] | [F,A,]4 [F,C]4 [F,C]2 [F,C]2 | %3
 [C,B,]6 [C,B,]2 [C,A,]2 [C,B,]2 | [F,A,]8 [F,C]2 [G,B,]2 | A,6 [F,A,]2 [F,B,]3 [F,A,] | %6
 [F,A,]4 [F,C]4 [F,C]2 [G,C]2 | [C,C]6 [C,C]2 [C,D]3 [C,C] | [F,A,]8 A,2 A,2 | B,6 B,2 B,3 B, | %10
 A,4 A,4 A,2 A,2 | G,6 G,2 G,2 =B,2 | C8 [F,C]2 [G,B,]2 | A,6 [F,A,]2 [F,B,]3 [F,A,] | %14
 [F,A,]4 [F,C]4 [F,C]2 [F,C]2 | [C,C]6 [C,C]2 [C,D]3 [C,C] | [F,A,]8 |] %17
V:4
 x4 | x12 | x12 | x12 | x12 | A,6 x6 | x12 | x12 | x12 | x12 | x12 | x12 | x12 | A,6 x6 | x12 | %15
 x12 | x8 |] %17

